brandFactory_export/1.Light/Archivo bloqueado_1Light.svg

<?xml version="1.0" encoding="UTF-8"?>
<svg width="24px" height="24px" viewBox="0 0 24 24" version="1.1" xmlns="http://www.w3.org/2000/svg" xmlns:xlink="http://www.w3.org/1999/xlink">
    <title>1.Light/Archivo bloqueado_1Light</title>
    <g id="Symbols" stroke="none" stroke-width="1" fill="none" fill-rule="evenodd">
        <g id="1.Light/Archivo-bloqueado_1Light" fill="#5CB615" fill-rule="nonzero">
            <path d="M22.6352941,17.6386555 L22.6352941,14.4184874 C22.6352941,14.3983193 22.6352941,14.3008403 22.6252101,14.1798319 C22.605042,13.9915966 22.5478992,13.7260504 22.3495798,13.5176471 C22.1243697,13.2722689 21.7478992,13.1512605 21.2470588,13.1512605 L14.292437,13.1512605 C14.1243697,13.1512605 13.6638655,13.1815126 13.3478992,13.4672269 C13.1327731,13.6756303 13.0218487,13.9915966 13.0218487,14.405042 L13.0218487,20.4184874 C13.0218487,20.4588235 12.9915966,20.9731092 13.3176471,21.3159664 C13.5462185,21.5546218 13.9092437,21.6722689 14.4,21.6722689 L21.2470588,21.6722689 C21.2773109,21.6722689 21.9193277,21.712605 22.312605,21.3361345 C22.5277311,21.1277311 22.6386555,20.8218487 22.6386555,20.4084034 L22.6352941,17.6386555 Z M20.8235294,11.3193277 C20.8235294,8.73109244 18.8840336,8.40504202 18.0369748,8.38823529 L17.7310924,8.37815126 C16.9142857,8.38823529 14.9915966,8.68403361 14.9915966,11.2991597 L14.9915966,12.1663866 L20.8235294,12.1663866 L20.8235294,11.3193277 Z M12.0369748,14.4084034 C12.0369748,13.6957983 12.2521008,13.1344538 12.6857143,12.7378151 C13.1193277,12.3445378 13.6403361,12.2134454 14.0067227,12.1831933 L14.0067227,11.2957983 C14.0067227,8.44201681 15.9260504,7.40672269 17.7310924,7.38655462 L18.0638655,7.39663866 C19.8756303,7.43697479 21.8084034,8.49243697 21.8084034,11.3159664 L21.8084034,12.2033613 C22.1243697,12.2537815 22.389916,12.3613445 22.6252101,12.4991597 L22.6252101,5.22521008 C22.6252101,4.92941176 22.389916,4.70420168 22.1042017,4.70420168 L11.297479,4.70420168 C11.0218487,4.70420168 10.8067227,4.47563025 10.8067227,4.21008403 L10.8067227,2.51932773 C10.8067227,2.22352941 10.5714286,1.99495798 10.2857143,1.99495798 L1.50588235,1.99495798 C1.22016807,1.99495798 0.98487395,2.22352941 0.98487395,2.51932773 L0.98487395,19.1277311 C0.98487395,19.4168067 1.22016807,19.6521008 1.50588235,19.6521008 L12.0369748,19.6521008 L12.0369748,14.4084034 L12.0369748,14.4084034 Z M23.610084,14.0756303 C23.6302521,14.2705882 23.6201681,14.4184874 23.6201681,14.4588235 L23.6201681,20.4151261 C23.6201681,21.1142857 23.4016807,21.6655462 22.9815126,22.0722689 C22.2823529,22.7243697 21.3142857,22.6638655 21.2067227,22.6638655 L14.4,22.6638655 C13.6235294,22.6638655 13.0117647,22.4352941 12.5983193,21.9815126 C12.1647059,21.5176471 12.0571429,20.9563025 12.0369748,20.6403361 L1.50588235,20.6403361 C0.678991597,20.6369748 0,19.9579832 0,19.1277311 L0,2.51932773 C0,1.6789916 0.678991597,1.01008403 1.50588235,1.01008403 L10.2823529,1.01008403 C11.1092437,1.01008403 11.7882353,1.68235294 11.7882353,2.51932773 L11.7882353,3.71260504 L22.1008403,3.71260504 C22.9277311,3.71260504 23.6067227,4.38487395 23.6067227,5.22184874 L23.610084,14.0756303 Z M17.8957983,18.8857143 C18.4033613,18.8756303 19.005042,18.6638655 19.005042,17.712605 C19.005042,16.7579832 18.4,16.5428571 17.8890756,16.5294118 L17.7478992,16.5294118 C17.2504202,16.5327731 16.6588235,16.7411765 16.6588235,17.702521 C16.6588235,18.6672269 17.2605042,18.8789916 17.7647059,18.8857143 L17.8957983,18.8857143 L17.8957983,18.8857143 Z M17.9092437,15.5445378 C18.8705882,15.5680672 19.989916,16.1495798 19.989916,17.712605 C19.989916,19.2789916 18.8705882,19.8537815 17.9159664,19.8705882 L17.7445378,19.8705882 C16.789916,19.8571429 15.6705882,19.2789916 15.6705882,17.702521 C15.6705882,16.1193277 16.7831933,15.5512605 17.7378151,15.5411765 L17.9092437,15.5445378 L17.9092437,15.5445378 Z M3.20336134,9.32605042 C3.44201681,9.32605042 3.80504202,9.32605042 3.80504202,7.94453782 C3.80504202,6.55630252 3.44201681,6.55630252 3.20336134,6.55630252 C2.96134454,6.55630252 2.59495798,6.55630252 2.59495798,7.94453782 C2.59831933,9.32268908 2.96470588,9.32268908 3.20336134,9.32605042 L3.20336134,9.32605042 Z M3.20336134,5.65546218 C4.20504202,5.65546218 4.7092437,6.42184874 4.7092437,7.94117647 C4.7092437,9.45378151 4.20168067,10.2201681 3.20336134,10.2201681 C2.19831933,10.2201681 1.6907563,9.45378151 1.6907563,7.94117647 C1.69411765,6.42521008 2.20168067,5.65546218 3.20336134,5.65546218 Z M7.02184874,9.32268908 C7.2605042,9.32268908 7.62352941,9.32268908 7.62352941,7.94117647 C7.62352941,6.55294118 7.2605042,6.55294118 7.02184874,6.55294118 C6.77983193,6.55294118 6.41344538,6.55294118 6.41344538,7.94117647 C6.41344538,9.32268908 6.77983193,9.32268908 7.02184874,9.32268908 L7.02184874,9.32268908 Z M7.02184874,5.65546218 C8.02352941,5.65546218 8.52773109,6.42184874 8.52773109,7.94117647 C8.52773109,9.45378151 8.02016807,10.2201681 7.02184874,10.2201681 C6.01680672,10.2201681 5.5092437,9.45378151 5.5092437,7.94117647 C5.5092437,6.42521008 6.01680672,5.65546218 7.02184874,5.65546218 L7.02184874,5.65546218 Z M3.88235294,15.7226891 C4.08739496,15.7226891 4.25210084,15.887395 4.25210084,16.092437 L4.25210084,16.2336134 C4.25210084,16.4386555 4.08739496,16.6033613 3.88235294,16.6033613 L2.53781513,16.6033613 C2.33277311,16.6033613 2.16806723,16.4386555 2.16806723,16.2336134 L2.16806723,16.092437 C2.16806723,15.887395 2.33277311,15.7226891 2.53781513,15.7226891 L2.81344538,15.7226891 L2.81344538,13.0436975 L2.58151261,13.0436975 C2.37647059,13.0436975 2.21176471,12.8789916 2.21176471,12.6739496 L2.21176471,12.5563025 C2.21176471,12.3680672 2.35294118,12.2067227 2.54453782,12.1865546 C2.77983193,12.1630252 2.99831933,12.1529412 3.08235294,12.1529412 C3.6605042,12.1529412 3.70420168,12.5731092 3.70420168,12.7008403 L3.70420168,15.7260504 C3.70756303,15.7226891 3.88235294,15.7226891 3.88235294,15.7226891 Z M7.02184874,15.7798319 C7.2605042,15.7798319 7.62352941,15.7798319 7.62352941,14.3983193 C7.62352941,13.010084 7.2605042,13.010084 7.02184874,13.010084 C6.77983193,13.010084 6.41344538,13.010084 6.41344538,14.3983193 C6.41344538,15.7798319 6.77983193,15.7798319 7.02184874,15.7798319 Z M7.02184874,12.112605 C8.02352941,12.112605 8.52773109,12.8789916 8.52773109,14.3983193 C8.52773109,15.9109244 8.02016807,16.6773109 7.02184874,16.6773109 C6.01680672,16.6773109 5.5092437,15.9109244 5.5092437,14.3983193 C5.5092437,12.8823529 6.01680672,12.112605 7.02184874,12.112605 L7.02184874,12.112605 Z M11.512605,15.7226891 C11.7176471,15.7226891 11.8823529,15.887395 11.8823529,16.092437 L11.8823529,16.2336134 C11.8823529,16.4386555 11.7176471,16.6033613 11.512605,16.6033613 L10.1714286,16.6033613 C9.96638655,16.6033613 9.80168067,16.4386555 9.80168067,16.2336134 L9.80168067,16.092437 C9.80168067,15.887395 9.96638655,15.7226891 10.1714286,15.7226891 L10.4470588,15.7226891 L10.4470588,13.0436975 L10.2151261,13.0436975 C10.010084,13.0436975 9.84537815,12.8789916 9.84537815,12.6739496 L9.84537815,12.5563025 C9.84537815,12.3680672 9.98655462,12.2067227 10.1781513,12.1865546 C10.4134454,12.1630252 10.6319328,12.1529412 10.7159664,12.1529412 C11.2941176,12.1529412 11.3378151,12.5731092 11.3378151,12.7008403 L11.3378151,15.7260504 C11.3411765,15.7226891 11.512605,15.7226891 11.512605,15.7226891 Z" id="Archivo-bloqueado_1Light"></path>
        </g>
    </g>
</svg>

<svg width="24" height="24" viewBox="0 0 24 24" xmlns="http://www.w3.org/2000/svg"><path d="M22.635 17.639v-3.22c0-.02 0-.118-.01-.24-.02-.187-.077-.453-.275-.661-.226-.246-.602-.367-1.103-.367h-6.955c-.168 0-.628.03-.944.316-.215.209-.326.525-.326.938v6.013c0 .04-.03.555.296.898.228.239.591.356 1.082.356h6.847c.03 0 .672.04 1.066-.336.215-.208.326-.514.326-.928l-.004-2.77zm-1.811-6.32c0-2.588-1.94-2.914-2.787-2.93l-.306-.01c-.817.01-2.74.305-2.74 2.92v.867h5.833v-.847zm-8.787 3.09c0-.713.215-1.275.649-1.671a2.25 2.25 0 011.32-.555v-.887c0-2.854 1.92-3.89 3.725-3.91l.333.01c1.812.041 3.744 1.096 3.744 3.92v.887c.316.05.582.158.817.296V5.225a.517.517 0 00-.52-.52H11.296a.494.494 0 01-.49-.495V2.52a.52.52 0 00-.521-.525h-8.78a.52.52 0 00-.521.524v16.609c0 .289.235.524.52.524h10.532v-5.244zm11.573-.333c.02.195.01.342.01.383v5.956c0 .7-.218 1.25-.638 1.657-.7.652-1.668.592-1.775.592H14.4c-.776 0-1.388-.229-1.802-.682-.433-.464-.54-1.026-.561-1.342H1.506A1.518 1.518 0 010 19.128V2.519C0 1.68.679 1.01 1.506 1.01h8.776c.827 0 1.506.672 1.506 1.51v1.193h10.313c.827 0 1.506.672 1.506 1.509l.003 8.854zm-5.714 4.81c.507-.01 1.109-.222 1.109-1.173 0-.955-.605-1.17-1.116-1.184h-.141c-.498.004-1.09.212-1.09 1.174 0 .964.603 1.176 1.107 1.183h.13zm.013-3.341c.962.023 2.08.605 2.08 2.168 0 1.566-1.118 2.14-2.073 2.158h-.171c-.955-.014-2.074-.592-2.074-2.168 0-1.584 1.112-2.152 2.067-2.162l.171.004zM3.203 9.326c.239 0 .602 0 .602-1.381 0-1.389-.363-1.389-.602-1.389-.242 0-.608 0-.608 1.389.003 1.378.37 1.378.608 1.381zm0-3.67c1.002 0 1.506.766 1.506 2.285 0 1.513-.507 2.28-1.506 2.28-1.005 0-1.512-.767-1.512-2.28.003-1.516.51-2.286 1.512-2.286zm3.819 3.667c.239 0 .602 0 .602-1.382 0-1.388-.363-1.388-.602-1.388-.242 0-.609 0-.609 1.388 0 1.382.367 1.382.609 1.382zm0-3.668c1.002 0 1.506.767 1.506 2.286 0 1.513-.508 2.28-1.506 2.28-1.005 0-1.513-.767-1.513-2.28 0-1.516.508-2.286 1.513-2.286zm-3.14 10.068c.205 0 .37.164.37.37v.14c0 .206-.165.37-.37.37H2.538a.369.369 0 01-.37-.37v-.14c0-.206.165-.37.37-.37h.275v-2.68h-.231a.369.369 0 01-.37-.37v-.117c0-.188.14-.35.333-.37.235-.023.453-.033.537-.033.579 0 .622.42.622.548v3.025c.004-.003.178-.003.178-.003zm3.14.057c.239 0 .602 0 .602-1.382 0-1.388-.363-1.388-.602-1.388-.242 0-.609 0-.609 1.388 0 1.382.367 1.382.609 1.382zm0-3.667c1.002 0 1.506.766 1.506 2.285 0 1.513-.508 2.28-1.506 2.28-1.005 0-1.513-.767-1.513-2.28 0-1.516.508-2.285 1.513-2.285zm4.49 3.61c.206 0 .37.164.37.37v.14c0 .206-.164.37-.37.37h-1.34a.369.369 0 01-.37-.37v-.14c0-.206.164-.37.37-.37h.275v-2.68h-.232a.369.369 0 01-.37-.37v-.117c0-.188.142-.35.333-.37.235-.023.454-.033.538-.033.578 0 .622.42.622.548v3.025c.003-.003.175-.003.175-.003z" fill="#5CB615" fill-rule="nonzero"/></svg>
